packages/icons/svg/Fill/volume.svg

<svg width="24" height="24" viewBox="0 0 24 24" fill="none" xmlns="http://www.w3.org/2000/svg">
<g id="Icon/Fill/volume">
<path id="Mask" fill-rule="evenodd" clip-rule="evenodd" d="M17 20.9999C16.802 20.9999 16.604 20.9409 16.435 20.8249L10.023 16.4289H5C4.448 16.4289 4 15.9809 4 15.4289V8.5709C4 8.0189 4.448 7.5709 5 7.5709H10.023L16.435 3.1749C16.74 2.9649 17.137 2.9409 17.466 3.1149C17.794 3.2879 18 3.6289 18 3.9999V19.9999C18 20.3709 17.794 20.7119 17.466 20.8849C17.32 20.9619 17.16 20.9999 17 20.9999Z" fill="#000000"/>
</g>
</svg>

<svg fill="none" height="24" viewBox="0 0 24 24" width="24" xmlns="http://www.w3.org/2000/svg"><path clip-rule="evenodd" d="m17 21c-.198 0-.396-.059-.565-.175l-6.412-4.396h-5.02302c-.552 0-1-.448-1-1v-6.85801c0-.552.448-1 1-1h5.02302l6.412-4.396c.305-.21.702-.234 1.031-.06.328.173.534.514.534.885v16.00001c0 .371-.206.712-.534.885-.146.077-.306.115-.466.115" fill="#6b7280" fill-rule="evenodd"/></svg>
